components/2.0/icon/icons/icon-comment-22px.svg

<svg width="22" height="22" xmlns="http://www.w3.org/2000/svg"><g fill="none" fill-rule="evenodd"><path d="M0 3l4 2.8V19h18V3H0z" fill="#FCC438"/><path d="M14 7v4h2v3h1l1-3V7h-4zM8 7v4h2v3h1l1-3V7H8z" fill="#FFF"/></g></svg>

<?xml version="1.0" encoding="UTF-8" standalone="no"?>
<svg width="22px" height="22px" viewBox="0 0 22 22" version="1.1" xmlns="http://www.w3.org/2000/svg" xmlns:xlink="http://www.w3.org/1999/xlink" xmlns:sketch="http://www.bohemiancoding.com/sketch/ns">
    <!-- Generator: Sketch 3.4.4 (17249) - http://www.bohemiancoding.com/sketch -->
    <title>icon-comment-22px</title>
    <desc>Created with Sketch.</desc>
    <defs></defs>
    <g id="22px" stroke="none" stroke-width="1" fill="none" fill-rule="evenodd" sketch:type="MSPage">
        <g id="icon-comment-22px" sketch:type="MSArtboardGroup">
            <path d="M0,3 L4,5.8 L4,19 L22,19 L22,3 L0,3 L0,3 Z" id="Shape" fill="#FCC438" sketch:type="MSShapeGroup"></path>
            <path d="M14,7 L14,11 L16,11 L16,14 L17,14 L18,11 L18,7 L14,7 Z" id="Shape" fill="#FFFFFF" sketch:type="MSShapeGroup"></path>
            <path d="M8,7 L8,11 L10,11 L10,14 L11,14 L12,11 L12,7 L8,7 Z" id="Shape" fill="#FFFFFF" sketch:type="MSShapeGroup"></path>
        </g>
    </g>
</svg>
